icons/settings.svg

<?xml version="1.0" encoding="UTF-8" standalone="no"?>
<svg
   xmlns:dc="http://purl.org/dc/elements/1.1/"
   xmlns:cc="http://creativecommons.org/ns#"
   xmlns:rdf="http://www.w3.org/1999/02/22-rdf-syntax-ns#"
   xmlns:svg="http://www.w3.org/2000/svg"
   xmlns="http://www.w3.org/2000/svg"
   xmlns:sodipodi="http://sodipodi.sourceforge.net/DTD/sodipodi-0.dtd"
   xmlns:inkscape="http://www.inkscape.org/namespaces/inkscape"
   width="22"
   height="22"
   viewBox="0 0 22 22"
   fill="none"
   version="1.1"
   id="svg4"
   sodipodi:docname="settings.svg"
   inkscape:version="0.92.4 5da689c313, 2019-01-14">
  <metadata
     id="metadata10">
    <rdf:RDF>
      <cc:Work
         rdf:about="">
        <dc:format>image/svg+xml</dc:format>
        <dc:type
           rdf:resource="http://purl.org/dc/dcmitype/StillImage" />
      </cc:Work>
    </rdf:RDF>
  </metadata>
  <defs
     id="defs8" />
  <sodipodi:namedview
     pagecolor="#ffffff"
     bordercolor="#666666"
     borderopacity="1"
     objecttolerance="10"
     gridtolerance="10"
     guidetolerance="10"
     inkscape:pageopacity="0"
     inkscape:pageshadow="2"
     inkscape:window-width="903"
     inkscape:window-height="623"
     id="namedview6"
     showgrid="false"
     inkscape:zoom="10.727273"
     inkscape:cx="11"
     inkscape:cy="11"
     inkscape:window-x="683"
     inkscape:window-y="92"
     inkscape:window-maximized="0"
     inkscape:current-layer="svg4" />
  <path
     fill-rule="evenodd"
     clip-rule="evenodd"
     d="M17.8771 11C17.8771 11.3116 17.8496 11.605 17.8129 11.8983L19.7471 13.4108C19.9212 13.5483 19.9671 13.7958 19.8571 13.9975L18.0237 17.1691C17.9412 17.3158 17.7854 17.3983 17.6296 17.3983C17.5746 17.3983 17.5196 17.3891 17.4646 17.3708L15.1821 16.4541C14.7054 16.8116 14.1921 17.1233 13.6329 17.3525L13.2846 19.7816C13.2571 20.0016 13.0646 20.1666 12.8354 20.1666H9.16872C8.93955 20.1666 8.74705 20.0016 8.71955 19.7816L8.37122 17.3525C7.81205 17.1233 7.29872 16.8208 6.82205 16.4541L4.53955 17.3708C4.49372 17.3891 4.43872 17.3983 4.38372 17.3983C4.21872 17.3983 4.06288 17.3158 3.98038 17.1691L2.14705 13.9975C2.03705 13.7958 2.08288 13.5483 2.25705 13.4108L4.19122 11.8983C4.15455 11.605 4.12705 11.3025 4.12705 11C4.12705 10.6975 4.15455 10.395 4.19122 10.1016L2.25705 8.58915C2.08288 8.45165 2.02788 8.20415 2.14705 8.00248L3.98038 4.83081C4.06288 4.68415 4.21872 4.60165 4.37455 4.60165C4.42955 4.60165 4.48455 4.61081 4.53955 4.62915L6.82205 5.54581C7.29872 5.18831 7.81205 4.87665 8.37122 4.64748L8.71955 2.21831C8.74705 1.99831 8.93955 1.83331 9.16872 1.83331H12.8354C13.0646 1.83331 13.2571 1.99831 13.2846 2.21831L13.6329 4.64748C14.1921 4.87665 14.7054 5.17915 15.1821 5.54581L17.4646 4.62915C17.5104 4.61081 17.5654 4.60165 17.6204 4.60165C17.7854 4.60165 17.9412 4.68415 18.0237 4.83081L19.8571 8.00248C19.9671 8.20415 19.9212 8.45165 19.7471 8.58915L17.8129 10.1016C17.8496 10.395 17.8771 10.6883 17.8771 11ZM16.0437 11C16.0437 10.8075 16.0346 10.615 15.9979 10.3308L15.8696 9.29498L16.6854 8.65331L17.6662 7.87415L17.0246 6.76498L15.8604 7.23248L14.8887 7.62665L14.0546 6.98498C13.6879 6.70998 13.3212 6.49915 12.9271 6.33415L11.9554 5.93998L11.8087 4.90415L11.6346 3.66665H10.3604L10.1771 4.90415L10.0304 5.93998L9.05873 6.33415C8.68289 6.48998 8.30706 6.70998 7.91289 7.00331L7.08789 7.62665L6.13456 7.24165L4.97039 6.77415L4.32873 7.88331L5.31873 8.65331L6.13456 9.29498L6.00623 10.3308C5.97873 10.6058 5.96039 10.8166 5.96039 11C5.96039 11.1833 5.97873 11.3941 6.00623 11.6783L6.13456 12.7141L5.31873 13.3558L4.32873 14.1258L4.97039 15.235L6.13456 14.7675L7.10623 14.3733L7.94039 15.015C8.30706 15.29 8.67373 15.5008 9.06789 15.6658L10.0396 16.06L10.1862 17.0958L10.3604 18.3333H11.6437L11.8271 17.0958L11.9737 16.06L12.9454 15.6658C13.3212 15.51 13.6971 15.29 14.0912 14.9966L14.9162 14.3733L15.8696 14.7583L17.0337 15.2258L17.6754 14.1166L16.6854 13.3466L15.8696 12.705L15.9979 11.6691C16.0254 11.3941 16.0437 11.1925 16.0437 11ZM11.0021 7.33331C8.97622 7.33331 7.33539 8.97415 7.33539 11C7.33539 13.0258 8.97622 14.6666 11.0021 14.6666C13.0279 14.6666 14.6687 13.0258 14.6687 11C14.6687 8.97415 13.0279 7.33331 11.0021 7.33331ZM9.16872 11C9.16872 12.0083 9.99372 12.8333 11.0021 12.8333C12.0104 12.8333 12.8354 12.0083 12.8354 11C12.8354 9.99165 12.0104 9.16665 11.0021 9.16665C9.99372 9.16665 9.16872 9.99165 9.16872 11Z"
     fill="#222222"
     fill-opacity="0.5"
     id="path2"
     style="fill:#000000;fill-opacity:0.2" />
</svg>

<svg xmlns="http://www.w3.org/2000/svg" width="22" height="22" fill="none"><path fill-rule="evenodd" clip-rule="evenodd" d="M17.877 11c0 .312-.027.605-.064.898l1.934 1.513c.174.137.22.385.11.587l-1.833 3.171a.454.454 0 0 1-.394.23.52.52 0 0 1-.165-.028l-2.283-.917c-.477.358-.99.67-1.55.898l-.347 2.43a.447.447 0 0 1-.45.385H9.17a.447.447 0 0 1-.45-.385l-.348-2.43a6.698 6.698 0 0 1-1.549-.898l-2.282.917a.458.458 0 0 1-.56-.202l-1.833-3.171a.462.462 0 0 1 .11-.587l1.934-1.513A7.268 7.268 0 0 1 4.127 11c0-.303.028-.605.064-.898L2.257 8.589a.452.452 0 0 1-.11-.587L3.98 4.831a.454.454 0 0 1 .395-.23c.055 0 .11.01.165.028l2.282.917c.477-.358.99-.67 1.55-.899l.348-2.429a.447.447 0 0 1 .449-.385h3.666c.23 0 .422.165.45.385l.348 2.43c.56.229 1.072.531 1.55.898l2.282-.917a.458.458 0 0 1 .56.202l1.832 3.171c.11.202.064.45-.11.587l-1.934 1.513c.037.293.064.586.064.898zm-1.833 0c0-.193-.01-.385-.046-.67l-.128-1.035.815-.642.981-.779-.641-1.109-1.165.467-.971.395-.834-.642a5.203 5.203 0 0 0-1.128-.65l-.972-.395-.146-1.036-.174-1.237H10.36l-.183 1.237-.147 1.036-.971.394a5.368 5.368 0 0 0-1.146.67l-.825.623-.953-.385-1.165-.468-.641 1.11.99.77.816.641-.129 1.036A7.01 7.01 0 0 0 5.96 11c0 .183.019.394.046.678l.129 1.036-.816.642-.99.77.641 1.109 1.165-.467.971-.395.834.642c.367.275.734.486 1.128.65l.972.395.146 1.036.174 1.237h1.284l.183-1.237.147-1.036.971-.394a5.364 5.364 0 0 0 1.146-.67l.825-.623.954.385 1.164.468.641-1.11-.99-.77-.815-.641.128-1.036a6.82 6.82 0 0 0 .046-.669zm-5.042-3.667A3.666 3.666 0 0 0 7.335 11a3.666 3.666 0 0 0 3.667 3.667A3.666 3.666 0 0 0 14.67 11a3.666 3.666 0 0 0-3.667-3.667zM9.17 11c0 1.008.825 1.833 1.833 1.833A1.839 1.839 0 0 0 12.835 11a1.839 1.839 0 0 0-1.833-1.833A1.839 1.839 0 0 0 9.17 11z" fill="#222" fill-opacity=".5" style="fill:#000;fill-opacity:.2"/></svg>
